plasma/desktoptheme/Materia-Mono/widgets/busywidget.svg

<svg xmlns="http://www.w3.org/2000/svg" id="svg23" width="112" height="41" version="1.1">
 <rect id="hint-rotation-angle" style="fill:#ff00ff" width="3.704" height="3.704" x="0" y="0"/>
 <g id="22-22-busywidget" transform="matrix(3.7773007,0,0,3.7773007,-6.9679581,1.0317159)">
  <rect id="rect3" style="opacity:0.001" width="5.82" height="5.82" x="6.61" y="4.76"/>
  <path id="path5" style="fill:#1a73e8" transform="matrix(0.26455883,0,0,0.26455881,0,-0.00117624)" d="m 36,18 a 2,2.0000001 0 0 0 -2,2 2,2.0000001 0 0 0 2,2 2,2.0000001 0 0 0 2,-2 2,2.0000001 0 0 0 -2,-2 z m -6.392578,2.636719 a 2.0000001,2 0 0 0 -1.384766,0.585937 2.0000001,2 0 0 0 0,2.828125 2.0000001,2 0 0 0 2.828125,0 2.0000001,2 0 0 0 0,-2.828125 2.0000001,2 0 0 0 -1.443359,-0.585937 z m 12.726562,0 a 1.9999999,2.0000002 0 0 0 -1.384765,0.585937 1.9999999,2.0000002 0 0 0 0,2.828125 1.9999999,2.0000002 0 0 0 2.828125,0 1.9999999,2.0000002 0 0 0 0,-2.828125 1.9999999,2.0000002 0 0 0 -1.44336,-0.585937 z M 27,27 a 2.0000001,2 0 0 0 -2,2 2.0000001,2 0 0 0 2,2 2.0000001,2 0 0 0 2,-2 2.0000001,2 0 0 0 -2,-2 z m 18,0 a 2.0000001,2 0 0 0 -2,2 2.0000001,2 0 0 0 2,2 2.0000001,2 0 0 0 2,-2 2.0000001,2 0 0 0 -2,-2 z m -15.392578,6.363281 a 1.9999999,2.0000002 0 0 0 -1.384766,0.585938 1.9999999,2.0000002 0 0 0 0,2.828125 1.9999999,2.0000002 0 0 0 2.828125,0 1.9999999,2.0000002 0 0 0 0,-2.828125 1.9999999,2.0000002 0 0 0 -1.443359,-0.585938 z m 12.726562,0 a 2.0000001,2 0 0 0 -1.384765,0.585938 2.0000001,2 0 0 0 0,2.828125 2.0000001,2 0 0 0 2.828125,0 2.0000001,2 0 0 0 0,-2.828125 2.0000001,2 0 0 0 -1.44336,-0.585938 z M 36,36 a 2,2.0000001 0 0 0 -2,2 2,2.0000001 0 0 0 2,2 2,2.0000001 0 0 0 2,-2 2,2.0000001 0 0 0 -2,-2 z"/>
 </g>
 <g id="16-16-busywidget" transform="matrix(3.7798254,0,0,3.7798254,0,0.9981089)">
  <rect id="rect8" style="opacity:0.001" width="4.233" height="4.233" x="0" y="6.35"/>
  <path id="path10" style="fill:#1a73e8" d="M 2.1164706,6.3482352 A 0.39683825,0.39683821 0 0 0 1.7196324,6.7450734 0.39683825,0.39683821 0 0 0 2.1164706,7.1419116 0.39683825,0.39683821 0 0 0 2.5133089,6.7450734 0.39683825,0.39683821 0 0 0 2.1164706,6.3482352 Z M 0.89495292,6.8520337 a 0.39683825,0.39683821 0 0 0 -0.27489316,0.1162612 0.39683825,0.39683821 0 0 0 0,0.5611541 0.39683825,0.39683821 0 0 0 0.56115414,0 0.39683825,0.39683821 0 0 0 0,-0.5611541 0.39683825,0.39683821 0 0 0 -0.28626098,-0.1162612 z m 2.43166778,0 a 0.39683825,0.39683821 0 0 0 -0.2748933,0.1162612 0.39683825,0.39683821 0 0 0 0,0.5611541 0.39683825,0.39683821 0 0 0 0.5611541,0 0.39683825,0.39683821 0 0 0 0,-0.5611541 A 0.39683825,0.39683821 0 0 0 3.3266207,6.8520337 Z M 0.39683825,8.0678675 A 0.39683825,0.39683821 0 0 0 0,8.4647057 0.39683825,0.39683821 0 0 0 0.39683825,8.8615439 0.39683825,0.39683821 0 0 0 0.79367649,8.4647057 0.39683825,0.39683821 0 0 0 0.39683825,8.0678675 Z m 3.43926475,0 A 0.39683825,0.39683821 0 0 0 3.4392648,8.4647057 0.39683825,0.39683821 0 0 0 3.836103,8.8615439 0.39683825,0.39683821 0 0 0 4.2329413,8.4647057 0.39683825,0.39683821 0 0 0 3.836103,8.0678675 Z M 0.89495292,9.2837012 a 0.39683825,0.39683821 0 0 0 -0.27489316,0.1162611 0.39683825,0.39683821 0 0 0 0,0.5611541 0.39683825,0.39683821 0 0 0 0.56115414,0 0.39683825,0.39683821 0 0 0 0,-0.5611541 0.39683825,0.39683821 0 0 0 -0.28626098,-0.1162611 z m 2.43166778,0 a 0.39683825,0.39683821 0 0 0 -0.2748933,0.1162611 0.39683825,0.39683821 0 0 0 0,0.5611541 0.39683825,0.39683821 0 0 0 0.5611541,0 0.39683825,0.39683821 0 0 0 0,-0.5611541 A 0.39683825,0.39683821 0 0 0 3.3266207,9.2837012 Z M 2.1164706,9.7874997 A 0.39683825,0.39683821 0 0 0 1.7196324,10.184338 0.39683825,0.39683821 0 0 0 2.1164706,10.581176 0.39683825,0.39683821 0 0 0 2.5133089,10.184338 0.39683825,0.39683821 0 0 0 2.1164706,9.7874997 Z"/>
 </g>
 <g id="busywidget" transform="matrix(7.5596507,0,0,7.5596507,44,-39.003781)">
  <rect id="rect13" style="opacity:0.001" width="4.233" height="4.233" x="0" y="6.35"/>
  <path id="path15" style="fill:#1a73e8" d="M 2.1164706,6.3482352 A 0.39683825,0.39683821 0 0 0 1.7196324,6.7450734 0.39683825,0.39683821 0 0 0 2.1164706,7.1419116 0.39683825,0.39683821 0 0 0 2.5133089,6.7450734 0.39683825,0.39683821 0 0 0 2.1164706,6.3482352 Z M 0.89495292,6.8520337 a 0.39683825,0.39683821 0 0 0 -0.27489316,0.1162612 0.39683825,0.39683821 0 0 0 0,0.5611541 0.39683825,0.39683821 0 0 0 0.56115414,0 0.39683825,0.39683821 0 0 0 0,-0.5611541 0.39683825,0.39683821 0 0 0 -0.28626098,-0.1162612 z m 2.43166778,0 a 0.39683825,0.39683821 0 0 0 -0.2748933,0.1162612 0.39683825,0.39683821 0 0 0 0,0.5611541 0.39683825,0.39683821 0 0 0 0.5611541,0 0.39683825,0.39683821 0 0 0 0,-0.5611541 A 0.39683825,0.39683821 0 0 0 3.3266207,6.8520337 Z M 0.39683825,8.0678675 A 0.39683825,0.39683821 0 0 0 0,8.4647057 0.39683825,0.39683821 0 0 0 0.39683825,8.8615439 0.39683825,0.39683821 0 0 0 0.79367649,8.4647057 0.39683825,0.39683821 0 0 0 0.39683825,8.0678675 Z m 3.43926475,0 A 0.39683825,0.39683821 0 0 0 3.4392648,8.4647057 0.39683825,0.39683821 0 0 0 3.836103,8.8615439 0.39683825,0.39683821 0 0 0 4.2329413,8.4647057 0.39683825,0.39683821 0 0 0 3.836103,8.0678675 Z M 0.89495292,9.2837012 a 0.39683825,0.39683821 0 0 0 -0.27489316,0.1162611 0.39683825,0.39683821 0 0 0 0,0.5611541 0.39683825,0.39683821 0 0 0 0.56115414,0 0.39683825,0.39683821 0 0 0 0,-0.5611541 0.39683825,0.39683821 0 0 0 -0.28626098,-0.1162611 z m 2.43166778,0 a 0.39683825,0.39683821 0 0 0 -0.2748933,0.1162611 0.39683825,0.39683821 0 0 0 0,0.5611541 0.39683825,0.39683821 0 0 0 0.5611541,0 0.39683825,0.39683821 0 0 0 0,-0.5611541 A 0.39683825,0.39683821 0 0 0 3.3266207,9.2837012 Z M 2.1164706,9.7874997 A 0.39683825,0.39683821 0 0 0 1.7196324,10.184338 0.39683825,0.39683821 0 0 0 2.1164706,10.581176 0.39683825,0.39683821 0 0 0 2.5133089,10.184338 0.39683825,0.39683821 0 0 0 2.1164706,9.7874997 Z"/>
 </g>
 <g id="stopped" transform="matrix(3.7795628,0,0,3.7795628,-11.992336,0.98955013)">
  <rect id="rect18" style="opacity:0.001" width="8.466" height="8.466" x="24.34" y="2.12"/>
  <path id="path20" style="fill:#1a73e8" d="m 28.572354,2.1152942 a 4.2329413,4.2329412 0 0 0 -4.232942,4.232941 4.2329413,4.2329412 0 0 0 4.232942,4.2329408 4.2329413,4.2329412 0 0 0 4.232941,-4.2329408 4.2329413,4.2329412 0 0 0 -4.232941,-4.232941 z m 0,1.5873529 a 2.6455882,2.6455881 0 0 1 2.645588,2.6455881 2.6455882,2.6455881 0 0 1 -2.645588,2.6455881 2.6455882,2.6455881 0 0 1 -2.645589,-2.6455881 2.6455882,2.6455881 0 0 1 2.645589,-2.6455881 z"/>
 </g>
</svg>

<svg xmlns="http://www.w3.org/2000/svg" width="136" height="40" version="1.1" viewBox="0 0 35.98 10.58">
 <rect id="hint-rotation-angle" style="fill:#0000ff" width="3.704" height="3.704" x="0" y="10.59"/>
 <g id="22-22-busywidget">
  <rect style="opacity:0.001" width="5.82" height="5.82" x="6.61" y="4.76"/>
  <path style="fill:#ff9800" transform="matrix(0.26455883,0,0,0.26455881,0,-0.00117624)" d="M 36 18 A 2 2.0000001 0 0 0 34 20 A 2 2.0000001 0 0 0 36 22 A 2 2.0000001 0 0 0 38 20 A 2 2.0000001 0 0 0 36 18 z M 29.607422 20.636719 A 2.0000001 2 0 0 0 28.222656 21.222656 A 2.0000001 2 0 0 0 28.222656 24.050781 A 2.0000001 2 0 0 0 31.050781 24.050781 A 2.0000001 2 0 0 0 31.050781 21.222656 A 2.0000001 2 0 0 0 29.607422 20.636719 z M 42.333984 20.636719 A 1.9999999 2.0000002 0 0 0 40.949219 21.222656 A 1.9999999 2.0000002 0 0 0 40.949219 24.050781 A 1.9999999 2.0000002 0 0 0 43.777344 24.050781 A 1.9999999 2.0000002 0 0 0 43.777344 21.222656 A 1.9999999 2.0000002 0 0 0 42.333984 20.636719 z M 27 27 A 2.0000001 2 0 0 0 25 29 A 2.0000001 2 0 0 0 27 31 A 2.0000001 2 0 0 0 29 29 A 2.0000001 2 0 0 0 27 27 z M 45 27 A 2.0000001 2 0 0 0 43 29 A 2.0000001 2 0 0 0 45 31 A 2.0000001 2 0 0 0 47 29 A 2.0000001 2 0 0 0 45 27 z M 29.607422 33.363281 A 1.9999999 2.0000002 0 0 0 28.222656 33.949219 A 1.9999999 2.0000002 0 0 0 28.222656 36.777344 A 1.9999999 2.0000002 0 0 0 31.050781 36.777344 A 1.9999999 2.0000002 0 0 0 31.050781 33.949219 A 1.9999999 2.0000002 0 0 0 29.607422 33.363281 z M 42.333984 33.363281 A 2.0000001 2 0 0 0 40.949219 33.949219 A 2.0000001 2 0 0 0 40.949219 36.777344 A 2.0000001 2 0 0 0 43.777344 36.777344 A 2.0000001 2 0 0 0 43.777344 33.949219 A 2.0000001 2 0 0 0 42.333984 33.363281 z M 36 36 A 2 2.0000001 0 0 0 34 38 A 2 2.0000001 0 0 0 36 40 A 2 2.0000001 0 0 0 38 38 A 2 2.0000001 0 0 0 36 36 z"/>
 </g>
 <g id="16-16-busywidget">
  <rect style="opacity:0.001" width="4.233" height="4.233" x="0" y="6.35"/>
  <path style="fill:#ff9800" d="M 2.1164706,6.3482352 A 0.39683825,0.39683821 0 0 0 1.7196324,6.7450734 0.39683825,0.39683821 0 0 0 2.1164706,7.1419116 0.39683825,0.39683821 0 0 0 2.5133089,6.7450734 0.39683825,0.39683821 0 0 0 2.1164706,6.3482352 Z M 0.89495292,6.8520337 a 0.39683825,0.39683821 0 0 0 -0.27489316,0.1162612 0.39683825,0.39683821 0 0 0 0,0.5611541 0.39683825,0.39683821 0 0 0 0.56115414,0 0.39683825,0.39683821 0 0 0 0,-0.5611541 0.39683825,0.39683821 0 0 0 -0.28626098,-0.1162612 z m 2.43166778,0 a 0.39683825,0.39683821 0 0 0 -0.2748933,0.1162612 0.39683825,0.39683821 0 0 0 0,0.5611541 0.39683825,0.39683821 0 0 0 0.5611541,0 0.39683825,0.39683821 0 0 0 0,-0.5611541 A 0.39683825,0.39683821 0 0 0 3.3266207,6.8520337 Z M 0.39683825,8.0678675 A 0.39683825,0.39683821 0 0 0 0,8.4647057 0.39683825,0.39683821 0 0 0 0.39683825,8.8615439 0.39683825,0.39683821 0 0 0 0.79367649,8.4647057 0.39683825,0.39683821 0 0 0 0.39683825,8.0678675 Z m 3.43926475,0 A 0.39683825,0.39683821 0 0 0 3.4392648,8.4647057 0.39683825,0.39683821 0 0 0 3.836103,8.8615439 0.39683825,0.39683821 0 0 0 4.2329413,8.4647057 0.39683825,0.39683821 0 0 0 3.836103,8.0678675 Z M 0.89495292,9.2837012 a 0.39683825,0.39683821 0 0 0 -0.27489316,0.1162611 0.39683825,0.39683821 0 0 0 0,0.5611541 0.39683825,0.39683821 0 0 0 0.56115414,0 0.39683825,0.39683821 0 0 0 0,-0.5611541 0.39683825,0.39683821 0 0 0 -0.28626098,-0.1162611 z m 2.43166778,0 a 0.39683825,0.39683821 0 0 0 -0.2748933,0.1162611 0.39683825,0.39683821 0 0 0 0,0.5611541 0.39683825,0.39683821 0 0 0 0.5611541,0 0.39683825,0.39683821 0 0 0 0,-0.5611541 A 0.39683825,0.39683821 0 0 0 3.3266207,9.2837012 Z M 2.1164706,9.7874997 A 0.39683825,0.39683821 0 0 0 1.7196324,10.184338 0.39683825,0.39683821 0 0 0 2.1164706,10.581176 0.39683825,0.39683821 0 0 0 2.5133089,10.184338 0.39683825,0.39683821 0 0 0 2.1164706,9.7874997 Z"/>
 </g>
 <g id="busywidget" transform="matrix(1.9999723,0,0,1.9999723,13.227941,-10.580883)">
  <rect style="opacity:0.001" width="4.233" height="4.233" x="0" y="6.35"/>
  <path style="fill:#ff9800" d="M 2.1164706,6.3482352 A 0.39683825,0.39683821 0 0 0 1.7196324,6.7450734 0.39683825,0.39683821 0 0 0 2.1164706,7.1419116 0.39683825,0.39683821 0 0 0 2.5133089,6.7450734 0.39683825,0.39683821 0 0 0 2.1164706,6.3482352 Z M 0.89495292,6.8520337 a 0.39683825,0.39683821 0 0 0 -0.27489316,0.1162612 0.39683825,0.39683821 0 0 0 0,0.5611541 0.39683825,0.39683821 0 0 0 0.56115414,0 0.39683825,0.39683821 0 0 0 0,-0.5611541 0.39683825,0.39683821 0 0 0 -0.28626098,-0.1162612 z m 2.43166778,0 a 0.39683825,0.39683821 0 0 0 -0.2748933,0.1162612 0.39683825,0.39683821 0 0 0 0,0.5611541 0.39683825,0.39683821 0 0 0 0.5611541,0 0.39683825,0.39683821 0 0 0 0,-0.5611541 A 0.39683825,0.39683821 0 0 0 3.3266207,6.8520337 Z M 0.39683825,8.0678675 A 0.39683825,0.39683821 0 0 0 0,8.4647057 0.39683825,0.39683821 0 0 0 0.39683825,8.8615439 0.39683825,0.39683821 0 0 0 0.79367649,8.4647057 0.39683825,0.39683821 0 0 0 0.39683825,8.0678675 Z m 3.43926475,0 A 0.39683825,0.39683821 0 0 0 3.4392648,8.4647057 0.39683825,0.39683821 0 0 0 3.836103,8.8615439 0.39683825,0.39683821 0 0 0 4.2329413,8.4647057 0.39683825,0.39683821 0 0 0 3.836103,8.0678675 Z M 0.89495292,9.2837012 a 0.39683825,0.39683821 0 0 0 -0.27489316,0.1162611 0.39683825,0.39683821 0 0 0 0,0.5611541 0.39683825,0.39683821 0 0 0 0.56115414,0 0.39683825,0.39683821 0 0 0 0,-0.5611541 0.39683825,0.39683821 0 0 0 -0.28626098,-0.1162611 z m 2.43166778,0 a 0.39683825,0.39683821 0 0 0 -0.2748933,0.1162611 0.39683825,0.39683821 0 0 0 0,0.5611541 0.39683825,0.39683821 0 0 0 0.5611541,0 0.39683825,0.39683821 0 0 0 0,-0.5611541 A 0.39683825,0.39683821 0 0 0 3.3266207,9.2837012 Z M 2.1164706,9.7874997 A 0.39683825,0.39683821 0 0 0 1.7196324,10.184338 0.39683825,0.39683821 0 0 0 2.1164706,10.581176 0.39683825,0.39683821 0 0 0 2.5133089,10.184338 0.39683825,0.39683821 0 0 0 2.1164706,9.7874997 Z"/>
 </g>
 <g id="stopped">
  <rect style="opacity:0.001" width="8.466" height="8.466" x="24.34" y="2.12"/>
  <path style="fill:#ff9800" d="m 28.572354,2.1152942 a 4.2329413,4.2329412 0 0 0 -4.232942,4.232941 4.2329413,4.2329412 0 0 0 4.232942,4.2329408 4.2329413,4.2329412 0 0 0 4.232941,-4.2329408 4.2329413,4.2329412 0 0 0 -4.232941,-4.232941 z m 0,1.5873529 a 2.6455882,2.6455881 0 0 1 2.645588,2.6455881 2.6455882,2.6455881 0 0 1 -2.645588,2.6455881 2.6455882,2.6455881 0 0 1 -2.645589,-2.6455881 2.6455882,2.6455881 0 0 1 2.645589,-2.6455881 z"/>
 </g>
</svg>
